packages/core/src/svgs/auto.svg

<svg width="24" height="24" viewBox="0 0 24 24" fill="none" xmlns="http://www.w3.org/2000/svg">
<g clip-path="url(#clip0_31_6387)">
<path d="M0 0H24V24H0V0Z" fill="#F0F3FA"/>
<path d="M7.23242 15.587L9.96756 13.8735L14.831 16.766L12.1079 18.5158L7.23242 15.587Z" fill="#E9595C"/>
<path d="M11.2469 6L6.53564 8.856V14.3691L11.2474 11.6271L11.2469 6Z" fill="#109E92"/>
<path d="M18.8574 14.661L15.8574 12.7839V11.1712L17.1431 11.856V8.89889L12.8574 6.11274V12.4286L11.5781 13.1593L17.6595 16.7987L12.0002 20.1429L5.14307 16.0899V7.98431L12.0002 3.85889L18.8574 7.98431V14.661ZM6.85735 8.89889V14.1729L11.1418 11.5672V6.21989L6.85735 8.89889ZM9.99535 14.064L7.46421 15.6266L12.0002 18.3069L14.5618 16.7923L9.99535 14.0632V14.064Z" fill="black"/>
</g>
<defs>
<clipPath id="clip0_31_6387">
<rect width="24" height="24" fill="white"/>
</clipPath>
</defs>
</svg>

<svg xmlns="http://www.w3.org/2000/svg" width="24" height="24" fill="none" viewBox="0 0 24 24"><g clip-path="url(#a)"><path fill="#F0F3FA" d="M0 0h24v24H0z"/><path fill="#E9595C" d="m7.232 15.587 2.736-1.713 4.863 2.892-2.723 1.75z"/><path fill="#109E92" d="M11.247 6 6.536 8.856v5.513l4.711-2.742z"/><path fill="#000" d="m18.857 14.661-3-1.877V11.17l1.286.685V8.899l-4.286-2.786v6.316l-1.279.73 6.082 3.64L12 20.143 5.143 16.09V7.984L12 3.86l6.857 4.125zm-12-5.762v5.274l4.285-2.606V6.22zm3.138 5.165-2.53 1.563L12 18.307l2.562-1.515z"/></g><defs><clipPath id="a"><path fill="#fff" d="M0 0h24v24H0z"/></clipPath></defs></svg>
